packages/core/src/svgs/tokens/mono/GULF.svg

<svg width="24" height="24" viewBox="0 0 24 24" fill="none" xmlns="http://www.w3.org/2000/svg">
<path d="M12.5554 4.22221C13.169 4.22221 13.6666 3.72474 13.6666 3.11111C13.6666 2.49746 13.169 2 12.5554 2C11.9417 2 11.4443 2.49746 11.4443 3.11111C11.4443 3.72474 11.9417 4.22221 12.5554 4.22221Z" fill="white"/>
<path d="M9.22231 6.24978V7.74977C9.22231 7.94976 9.39453 8.11088 9.61119 8.11088H11.4168C12.7667 8.11088 13.6667 8.90532 13.6667 10.1664V10.8887H12.1112C11.5202 10.8813 10.9337 10.9904 10.3848 11.2099C9.8361 11.4292 9.33588 11.7546 8.91285 12.1673C8.48983 12.5799 8.15224 13.072 7.91937 13.6151C7.6865 14.1583 7.56291 14.7421 7.55566 15.333C7.55566 17.7885 9.59447 19.7774 12.1112 19.7774H13.8333C14.0501 19.7774 14.2222 19.6107 14.2222 19.3885V15.7219C14.2222 15.5052 14.0389 15.333 13.8167 15.333H11.6945C11.5556 15.333 11.4445 15.4552 11.4445 15.5997V16.733C11.4445 16.8775 11.5556 16.9997 11.6945 16.9997H12.5556V17.5552H12.0612C11.7642 17.5604 11.4692 17.507 11.1929 17.3981C10.9166 17.2892 10.6644 17.1269 10.4508 16.9205C10.2373 16.7142 10.0664 16.4677 9.9481 16.1954C9.82975 15.923 9.76623 15.6299 9.76117 15.333C9.76117 14.1108 10.7946 13.1109 12.0612 13.1109H15.5723C15.7444 13.1109 15.889 12.9553 15.889 12.7663V10.1109C15.889 7.79421 13.8722 5.88867 11.3889 5.88867H9.61119C9.39453 5.88867 9.22231 6.05534 9.22231 6.24978Z" fill="white"/>
<path d="M11.4445 4.77783H12.0001V6.44448H11.4445V4.77783ZM11.4445 19.2221H12.0001V21.9999H11.4445V19.2221ZM12.5555 4.77783H13.1111V6.44448H12.5555V4.77783ZM12.5555 19.7777H13.1111V21.9999H12.5555V19.7777ZM19.2222 7.86113L18.8166 7.55559L17.7944 8.66668H15.3333V9.22223H18.0444L19.2222 7.86113ZM4.77784 12.3055L5.1834 12L6.20561 13.1111H8.6667V13.6666H5.95561L4.77784 12.3055ZM20.3332 11.1388L19.9222 11.4444L18.8888 10.3333H15.3333V9.77778H19.1388L20.3332 11.1388ZM3.66675 15.5833L4.07785 15.8888L5.11117 14.7778H8.6667V14.2222H4.86118L3.66675 15.5833Z" fill="white"/>
<path d="M19.2222 12.2498L18.811 12.5553L17.7777 11.4441H14.7777V10.8887H18.0278L19.2222 12.2498ZM4.77783 16.6941L5.18894 16.9997L6.22227 15.8886H9.22223V15.333H5.97227L4.77783 16.6941Z" fill="white"/>
<path d="M18.1107 13.3611L17.6664 13.6666L16.5719 12.5556H14.2219V12H16.8386L18.1107 13.3611ZM5.88867 17.8055L6.33312 18.1111L7.42756 17H9.77756V16.4444H7.16088L5.88867 17.8055Z" fill="white"/>
</svg>

<svg xmlns="http://www.w3.org/2000/svg" width="24" height="24" fill="none" viewBox="0 0 24 24">
    <path fill="#fff" d="M12.555 4.222a1.111 1.111 0 1 0 0-2.222 1.111 1.111 0 0 0 0 2.222M9.222 6.25v1.5c0 .2.173.36.39.36h1.805c1.35 0 2.25.795 2.25 2.056v.723H12.11a4.497 4.497 0 0 0-4.555 4.444c0 2.455 2.038 4.444 4.555 4.444h1.722a.383.383 0 0 0 .39-.389v-3.666a.397.397 0 0 0-.406-.389h-2.123c-.138 0-.25.122-.25.267v1.133c0 .145.112.267.25.267h.862v.555h-.495a2.26 2.26 0 0 1-2.3-2.222c0-1.222 1.034-2.222 2.3-2.222h3.511c.172 0 .317-.156.317-.345v-2.655c0-2.317-2.017-4.222-4.5-4.222H9.61c-.216 0-.389.166-.389.36"/>
    <path fill="#fff" d="M11.445 4.778H12v1.666h-.556zm0 14.444H12V22h-.556zm1.11-14.444h.556v1.666h-.556zm0 15h.556V22h-.556zM19.223 7.86l-.405-.305-1.023 1.11h-2.46v.556h2.71zM4.778 12.306 5.183 12l1.023 1.111h2.46v.556h-2.71zm15.555-1.167-.41.305-1.034-1.11h-3.556v-.556h3.806zM3.667 15.583l.41.306 1.034-1.111h3.556v-.556H4.86z"/>
    <path fill="#fff" d="m19.222 12.25-.411.305-1.033-1.11h-3v-.556h3.25zM4.778 16.694l.41.306 1.034-1.111h3v-.556h-3.25z"/>
    <path fill="#fff" d="m18.11 13.361-.444.306-1.094-1.111h-2.35V12h2.617zM5.89 17.805l.444.306L7.428 17h2.35v-.556H7.16z"/>
</svg>
